build/img/landings/copywriting/prog/dz.svg

<svg width="24" height="24" viewBox="0 0 24 24" fill="none" xmlns="http://www.w3.org/2000/svg">

<path d="M2.80408 15.4771C2.80408 15.4771 2.94608 17.2151 2.97908 17.7631C3.02308 18.4981 3.30708 19.3191 3.78108 19.8891C4.45008 20.6971 5.23808 20.9821 6.29008 20.9841C7.52708 20.9861 16.5221 20.9861 17.7591 20.9841C18.8111 20.9821 19.5991 20.6971 20.2681 19.8891C20.7421 19.3191 21.0261 18.4981 21.0711 17.7631C21.1031 17.2151 21.2451 15.4771 21.2451 15.4771" stroke="#858585" stroke-width="1.5" stroke-linecap="round" stroke-linejoin="round"/>
<path d="M8.49597 5.32949V4.95849C8.49597 3.73849 9.48397 2.75049 10.704 2.75049H13.286C14.505 2.75049 15.494 3.73849 15.494 4.95849L15.495 5.32949" stroke="#858585" stroke-width="1.5" stroke-linecap="round" stroke-linejoin="round"/>
<path d="M11.995 16.6783V15.3843" stroke="#858585" stroke-width="1.5" stroke-linecap="round" stroke-linejoin="round"/>
<path fill-rule="evenodd" clip-rule="evenodd" d="M2.74988 8.38905V11.8561C4.66788 13.1211 6.96588 14.0071 9.48788 14.3581C9.78988 13.2571 10.7829 12.4501 11.9899 12.4501C13.1779 12.4501 14.1909 13.2571 14.4729 14.3681C17.0049 14.0171 19.3119 13.1311 21.2399 11.8561V8.38905C21.2399 6.69505 19.8769 5.33105 18.1829 5.33105H5.81688C4.12288 5.33105 2.74988 6.69505 2.74988 8.38905Z" stroke="#858585" stroke-width="1.5" stroke-linecap="round" stroke-linejoin="round"/>

</svg>

<svg width="24" height="24" fill="none" xmlns="http://www.w3.org/2000/svg"><path d="M2.804 15.477s.142 1.738.175 2.286c.044.735.328 1.556.802 2.126.67.808 1.457 1.093 2.51 1.095 1.236.002 10.231.002 11.468 0 1.052-.002 1.84-.287 2.51-1.095.473-.57.757-1.39.802-2.126.032-.548.174-2.286.174-2.286M8.496 5.33v-.372c0-1.22.988-2.208 2.208-2.208h2.582c1.219 0 2.208.988 2.208 2.208l.001.371m-3.5 11.349v-1.294" stroke="#858585" stroke-width="1.5" stroke-linecap="round" stroke-linejoin="round"/><path clip-rule="evenodd" d="M2.75 8.389v3.467c1.918 1.265 4.216 2.151 6.738 2.502a2.584 2.584 0 012.502-1.908c1.188 0 2.2.807 2.483 1.918 2.532-.35 4.839-1.237 6.767-2.512V8.39a3.05 3.05 0 00-3.057-3.058H5.817A3.06 3.06 0 002.75 8.39z" stroke="#858585" stroke-width="1.5" stroke-linecap="round" stroke-linejoin="round"/></svg>
